images/organisations/radity.4eee1d7016ba6062.svg

<?xml version="1.0" encoding="UTF-8"?>
<svg width="147px" height="45px" viewBox="0 0 147 45" version="1.1" xmlns="http://www.w3.org/2000/svg" xmlns:xlink="http://www.w3.org/1999/xlink">
    <!-- Generator: Sketch 61 (89581) - https://sketch.com -->
    <title>Radity</title>
    <desc>Radity - Software Development and IT Solutions</desc>
    <g id="Page-1" stroke="none" stroke-width="1" fill="none" fill-rule="evenodd">
        <g id="03.01---Logo-LP-2" transform="translate(-40.000000, -38.000000)" fill="#02072F">
            <g id="radity-logo-white-wod" transform="translate(40.000000, 38.000000)">
                <path d="M82.415662,29.7602588 L77.7108012,29.7602588 L74.0990384,23.6120915 L72.0195758,23.6120915 L72.0195758,29.7614655 L67.6422764,29.7614655 L67.6422764,11.0478683 L75.3025504,11.0478683 C77.1354219,11.0478683 78.667722,11.6632884 79.9534311,12.9182627 C81.2391401,14.1756504 81.8684996,15.6731725 81.8684996,17.4639243 C81.8684996,19.7361517 80.4453865,21.8213398 78.3401607,22.8904813 L82.415662,29.7614655 L82.415662,29.7602588 Z M75.3025504,15.0577525 L72.0195758,15.0577525 L72.0195758,19.8700961 L75.3025504,19.8700961 C76.5072892,19.8700961 77.4912001,18.8275021 77.4912001,17.4639243 C77.4912001,16.1003465 76.5072892,15.0577525 75.3025504,15.0577525 L75.3025504,15.0577525 Z M93.2853013,17.6521704 L93.2853013,16.3947827 L97.3890195,16.3947827 L97.3890195,29.7602588 L93.2853013,29.7602588 L93.2853013,28.5052845 C92.3283804,29.6009736 90.9592475,30.1343376 89.2085731,30.1343376 C87.4026917,30.1343376 85.8716184,29.4670292 84.5846826,28.1034514 C83.2989735,26.7398736 82.6708409,25.0565186 82.6708409,23.0775207 C82.6708409,21.0985229 83.2989735,19.4417155 84.5846826,18.0793444 C85.8703916,16.7157666 87.4026917,16.0207039 89.2085731,16.0207039 C90.9592475,16.0207039 92.3271536,16.5552746 93.2853013,17.6509637 L93.2853013,17.6521704 Z M87.676273,25.457145 C88.2774155,26.0448109 89.0711691,26.3392472 90.0293168,26.3392472 C90.9862376,26.3392472 91.7799912,26.0448109 92.3823606,25.457145 C92.9835031,24.8694792 93.2853013,24.0670197 93.2853013,23.0775207 C93.2853013,22.0880218 92.9835031,21.286769 92.3823606,20.6991032 C91.781218,20.1102306 90.9862376,19.8170011 90.0293168,19.8170011 C89.0723959,19.8170011 88.2786424,20.1102306 87.676273,20.6978965 C87.0751304,21.286769 86.7733323,22.0892285 86.7733323,23.0775207 C86.7733323,24.0670197 87.0751304,24.8694792 87.676273,25.457145 Z M110.035096,17.6509637 L110.035096,11.0478683 L114.138815,11.0478683 L114.138815,29.7614655 L110.035096,29.7614655 L110.035096,28.5052845 C109.078176,29.6009736 107.710269,30.1343376 105.959595,30.1343376 C104.153714,30.1343376 102.62264,29.4670292 101.335705,28.1034514 C100.049995,26.7398736 99.4218628,25.0565186 99.4218628,23.0775207 C99.4218628,21.0985229 100.049995,19.4417155 101.335705,18.0793444 C102.621414,16.7157666 104.153714,16.0207039 105.959595,16.0207039 C107.710269,16.0207039 109.078176,16.5552746 110.035096,17.6509637 Z M104.427295,25.457145 C105.028437,26.0448109 105.822191,26.3392472 106.780339,26.3392472 C107.73726,26.3392472 108.531013,26.0448109 109.132156,25.457145 C109.734525,24.8694792 110.035096,24.0670197 110.035096,23.0775207 C110.035096,22.0880218 109.734525,21.286769 109.132156,20.6991032 C108.531013,20.1102306 107.73726,19.8170011 106.780339,19.8170011 C105.823418,19.8170011 105.029664,20.1102306 104.427295,20.6978965 C103.826152,21.286769 103.524354,22.0892285 103.524354,23.0775207 C103.524354,24.0670197 103.824926,24.8694792 104.427295,25.457145 Z M120.631154,14.5243884 C119.674234,15.4583789 118.140707,15.4583789 117.156796,14.5243884 C116.199875,13.561437 116.199875,12.0627081 117.156796,11.1287176 C118.140707,10.1657662 119.673007,10.1657662 120.631154,11.1287176 C121.615065,12.0639148 121.615065,13.561437 120.631154,14.5231817 L120.631154,14.5243884 Z M120.958716,29.7614655 L116.854998,29.7614655 L116.854998,16.3947827 L120.958716,16.3947827 L120.958716,29.7602588 L120.958716,29.7614655 Z M131.690951,16.3947827 L131.690951,20.244175 L128.872942,20.244175 L128.872942,24.9756693 C128.872942,26.0448109 129.694912,26.2318503 131.690951,26.1256602 L131.690951,29.7614655 C129.092543,30.0281475 127.286662,29.788013 126.274534,29.0398552 C125.262406,28.2639433 124.769224,26.9281197 124.769224,24.9756693 L124.769224,20.244175 L122.580574,20.244175 L122.580574,16.3947827 L124.769224,16.3947827 L124.769224,13.8546665 L128.872942,12.6515806 L128.872942,16.3947827 L131.690951,16.3947827 L131.690951,16.3947827 Z M140.043152,24.5750429 L142.61457,16.393576 L146.99187,16.393576 L142.313999,29.3596323 C140.781699,33.5577626 138.374675,35.2954193 134.516321,35.1083799 L134.516321,31.3651778 C136.4044,31.3651778 137.30734,30.7775119 137.9367,29.1460454 L132.492066,16.3947827 L137.006769,16.3947827 L140.043152,24.5750429 L140.043152,24.5750429 Z" id="Shape"></path>
                <path d="M38.4436855,39.1242638 C39.7368401,39.1242638 40.785149,40.1725727 40.785149,41.4657273 L40.785149,41.8861788 C40.785149,43.1793334 39.7368401,44.2276423 38.4436855,44.2276423 L2.34146351,44.2276423 C1.04830892,44.2276423 -7.29812657e-16,43.1793334 0,41.8861788 L0,41.4657273 C-1.58365763e-16,40.1725727 1.04830892,39.1242638 2.34146351,39.1242638 L38.4436855,39.1242638 Z M33.2811803,31.2996567 C34.5743349,31.2996567 35.6226438,32.3479657 35.6226438,33.6411202 L35.6226438,34.0615717 C35.6226438,35.3547263 34.5743349,36.4030352 33.2811803,36.4030352 L2.34146351,36.4030352 C1.04830892,36.4030352 6.02454972e-16,35.3547263 0,34.0615717 L0,33.6411202 C-1.58365763e-16,32.3479657 1.04830892,31.2996567 2.34146351,31.2996567 L33.2811803,31.2996567 Z M28.1186752,23.4750497 C29.4118298,23.4750497 30.4601387,24.5233586 30.4601387,25.8165132 L30.4601387,26.2369647 C30.4601387,27.5301193 29.4118298,28.5784282 28.1186752,28.5784282 L2.34146351,28.5784282 C1.04830892,28.5784282 6.02454972e-16,27.5301193 0,26.2369647 L0,25.8165132 C-1.58365763e-16,24.5233586 1.04830892,23.4750497 2.34146351,23.4750497 L28.1186752,23.4750497 Z M41.8861788,15.6492141 C43.1793334,15.6492141 44.2276423,16.697523 44.2276423,17.9906776 L44.2276423,18.4111291 C44.2276423,19.7042837 43.1793334,20.7525926 41.8861788,20.7525926 L2.34146351,20.7525926 C1.04830892,20.7525926 2.37881181e-15,19.7042837 0,18.4111291 L0,17.9906776 C-1.58365763e-16,16.697523 1.04830892,15.6492141 2.34146351,15.6492141 L41.8861788,15.6492141 Z M41.8861788,7.82460705 C43.1793334,7.82460705 44.2276423,8.87291597 44.2276423,10.1660706 L44.2276423,10.586522 C44.2276423,11.8796766 43.1793334,12.9279855 41.8861788,12.9279855 L2.34146351,12.9279855 C1.04830892,12.9279855 2.37881181e-15,11.8796766 0,10.586522 L0,10.1660706 C2.85723447e-16,8.87291597 1.04830892,7.82460705 2.34146351,7.82460705 L41.8861788,7.82460705 Z M31.5599337,0 C32.8530883,2.06540566e-16 33.9013972,1.04830892 33.9013972,2.34146351 L33.9013972,2.76191499 C33.9013972,4.05506958 32.8530883,5.1033785 31.5599337,5.1033785 L2.34146351,5.1033785 C1.04830892,5.1033785 6.02454972e-16,4.05506958 0,2.76191499 L0,2.34146351 C-1.58365763e-16,1.04830892 1.04830892,6.81637854e-16 2.34146351,0 L31.5599337,0 Z" id="Combined-Shape"></path>
            </g>
        </g>
    </g>
</svg>

<svg width="147" height="45" xmlns="http://www.w3.org/2000/svg"><g fill="#02072F" fill-rule="evenodd"><path d="M82.416 29.76H77.71l-3.612-6.148h-2.08v6.15h-4.377V11.047h7.66c1.833 0 3.366.615 4.651 1.87 1.286 1.258 1.915 2.755 1.915 4.546 0 2.272-1.423 4.357-3.528 5.426l4.076 6.871zm-7.113-14.702H72.02v4.812h3.283c1.204 0 2.188-1.042 2.188-2.406s-.984-2.406-2.188-2.406zm17.982 2.594v-1.257h4.104V29.76h-4.104v-1.255c-.957 1.096-2.326 1.63-4.076 1.63-1.806 0-3.337-.668-4.624-2.032-1.286-1.363-1.914-3.046-1.914-5.025 0-1.98.628-3.636 1.914-4.999 1.285-1.363 2.818-2.058 4.624-2.058 1.75 0 3.118.534 4.076 1.63v.001zm-5.609 7.805c.601.588 1.395.882 2.353.882.957 0 1.751-.294 2.353-.882.602-.588.903-1.39.903-2.38 0-.989-.301-1.79-.903-2.378-.6-.589-1.396-.882-2.353-.882-.957 0-1.75.293-2.353.88-.6.59-.903 1.392-.903 2.38 0 .99.302 1.792.903 2.38zm22.36-7.806v-6.603h4.103V29.76h-4.104v-1.256c-.957 1.096-2.325 1.63-4.075 1.63-1.806 0-3.337-.668-4.624-2.032-1.286-1.363-1.914-3.046-1.914-5.025 0-1.98.628-3.636 1.914-4.999 1.285-1.363 2.818-2.058 4.624-2.058 1.75 0 3.118.534 4.075 1.63zm-5.609 7.806c.601.588 1.395.882 2.353.882.957 0 1.751-.294 2.352-.882.603-.588.903-1.39.903-2.38 0-.989-.3-1.79-.903-2.378-.601-.589-1.395-.882-2.352-.882-.957 0-1.75.293-2.353.88-.6.59-.903 1.392-.903 2.38 0 .99.3 1.792.903 2.38zm16.204-10.933c-.957.934-2.49.934-3.474 0-.957-.963-.957-2.461 0-3.395.984-.963 2.516-.963 3.474 0 .984.935.984 2.432 0 3.394v.001zm.328 15.237h-4.104V16.395h4.104V29.76zm10.732-13.366v3.85h-2.818v4.73c0 1.07.822 1.257 2.818 1.15v3.636c-2.598.267-4.404.027-5.416-.721-1.013-.776-1.506-2.112-1.506-4.064v-4.732h-2.188v-3.85h2.188v-2.54l4.104-1.202v3.743h2.818zm8.352 8.18l2.572-8.181h4.377l-4.678 12.966c-1.532 4.198-3.94 5.935-7.798 5.748v-3.743c1.888 0 2.791-.587 3.42-2.219l-5.444-12.751h4.515l3.036 8.18zM38.444 39.124a2.341 2.341 0 012.341 2.342v.42a2.341 2.341 0 01-2.341 2.342H2.34A2.341 2.341 0 010 41.886v-.42a2.341 2.341 0 012.341-2.342h36.103zM33.28 31.3a2.341 2.341 0 012.342 2.341v.42a2.341 2.341 0 01-2.342 2.342H2.341A2.341 2.341 0 010 34.062v-.42A2.341 2.341 0 012.341 31.3h30.94zm-5.162-7.825a2.341 2.341 0 012.341 2.342v.42a2.341 2.341 0 01-2.341 2.341H2.34A2.341 2.341 0 010 26.237v-.42a2.341 2.341 0 012.341-2.342H28.12zm13.767-7.826a2.341 2.341 0 012.342 2.342v.42a2.341 2.341 0 01-2.342 2.342H2.341A2.341 2.341 0 010 18.41v-.42a2.341 2.341 0 012.341-2.342h39.545zm0-7.824a2.341 2.341 0 012.342 2.341v.42a2.341 2.341 0 01-2.342 2.342H2.341A2.341 2.341 0 010 10.587v-.42a2.341 2.341 0 012.341-2.342h39.545zM31.56 0A2.341 2.341 0 0133.9 2.341v.42a2.341 2.341 0 01-2.341 2.342H2.34A2.341 2.341 0 010 2.762v-.42A2.341 2.341 0 012.341 0H31.56z"/></g></svg>
